Origami/22x22/apps/applications-interfacedesign.svg

<svg width="22" height="22" version="1" xmlns="http://www.w3.org/2000/svg">
 <path d="m1 4.5v14.5c0 0.5544 0.445625 1 1 1h18.0005c0.554 0 0.9995-0.4455 0.9995-1v-14.5z" style="fill:#c7c7c7"/>
 <rect x="3" y="14.5" width="16" height="2" rx=".762" ry=".829" style="opacity:.2"/>
 <path d="M 2,2 C 1.4456,2 1,2.44575 1,2.99975 V 5 H 21 V 2.99975 C 21,2.44575 20.5545,2 20,2 Z" style="fill:#5a6367"/>
 <path d="m2 2c-0.5544 0-1 0.446-1 1v0.5c0-0.554 0.4456-1 1-1h18c0.5544 0 1 0.446 1 1v-0.5c0-0.554-0.4455-1-1-1z" style="fill:#ffffff;opacity:.1"/>
 <path d="m1 19v0.5c0 0.5544 0.445625 1 1 1h18.001c0.5535 0 0.999-0.4455 0.999-1v-0.5c0 0.5544-0.445275 1-0.999 1h-18.001c-0.5544 0-1-0.4455-1-1z" style="opacity:.2"/>
 <rect x="3" y="14" width="16" height="2" rx=".762" ry=".829" style="fill:#ffffff"/>
 <path d="m17 15.5c0 1.655998-1.344002 3-3 3-1.656 0-3-1.344002-3-3 0-1.656 1.344-3 3-3 1.655998 0 3 1.344 3 3z" style="fill-rule:evenodd;opacity:.1"/>
 <path d="m17 15c0 1.655998-1.344002 3-3 3-1.656 0-3-1.344002-3-3 0-1.656 1.344-3 3-3 1.655998 0 3 1.344 3 3z" style="fill-rule:evenodd;fill:#5294e2"/>
 <circle cx="4" cy="7.5" r="1" style="opacity:.2"/>
 <circle cx="4" cy="7" r="1" style="fill:#ffffff"/>
 <rect x="7" y="10.5" width="2" height="2" rx=".315" ry=".344" style="opacity:.1"/>
 <rect x="7" y="10" width="2" height="2" rx=".315" ry=".344" style="fill:#5294e2"/>
 <rect x="7" y="6.5" width="2" height="2" rx=".315" ry=".344" style="opacity:.2"/>
 <rect x="7" y="6" width="2" height="2" rx=".315" ry=".344" style="fill:#ffffff"/>
 <circle cx="4" cy="11.5" r="1" style="opacity:.1"/>
 <circle cx="4" cy="11" r="1" style="fill:#5294e2"/>
</svg>

<svg xmlns="http://www.w3.org/2000/svg" width="22" height="22" version="1">
 <path style="fill:#c7c7c7" d="M 1,4.5 V 19 c 0,0.5544 0.445625,1 1,1 H 20.0005 C 20.5545,20 21,19.5545 21,19 V 4.5 Z"/>
 <rect style="opacity:0.2" width="16" height="2" x="3" y="14.5" rx=".762" ry=".829"/>
 <path style="fill:#5a6367" d="M 2,2 C 1.4456,2 1,2.44575 1,2.99975 V 5 H 21 V 2.99975 C 21,2.44575 20.5545,2 20,2 Z"/>
 <path style="opacity:0.1;fill:#ffffff" d="M 2,2 C 1.4456,2 1,2.446 1,3 v 0.5 c 0,-0.554 0.4456,-1 1,-1 h 18 c 0.5544,0 1,0.446 1,1 V 3 C 21,2.446 20.5545,2 20,2 Z"/>
 <path style="opacity:0.2" d="m 1,19 v 0.5 c 0,0.5544 0.445625,1 1,1 H 20.001 C 20.5545,20.5 21,20.0545 21,19.5 V 19 c 0,0.5544 -0.445275,1 -0.999,1 H 2 C 1.4456,20 1,19.5545 1,19 Z"/>
 <rect style="fill:#ffffff" width="16" height="2" x="3" y="14" rx=".762" ry=".829"/>
 <path style="opacity:0.1;fill-rule:evenodd" d="m 17,15.5 c 0,1.655998 -1.344002,3 -3,3 -1.656,0 -3,-1.344002 -3,-3 0,-1.656 1.344,-3 3,-3 1.655998,0 3,1.344 3,3 z"/>
 <path style="fill:#525252;fill-rule:evenodd" d="m 17,15 c 0,1.655998 -1.344002,3 -3,3 -1.656,0 -3,-1.344002 -3,-3 0,-1.656 1.344,-3 3,-3 1.655998,0 3,1.344 3,3 z"/>
 <circle style="opacity:0.2" cx="4" cy="7.5" r="1"/>
 <circle style="fill:#ffffff" cx="4" cy="7" r="1"/>
 <rect style="opacity:0.1" width="2" height="2" x="7" y="10.5" rx=".315" ry=".344"/>
 <rect style="fill:#525252" width="2" height="2" x="7" y="10" rx=".315" ry=".344"/>
 <rect style="opacity:0.2" width="2" height="2" x="7" y="6.5" rx=".315" ry=".344"/>
 <rect style="fill:#ffffff" width="2" height="2" x="7" y="6" rx=".315" ry=".344"/>
 <circle style="opacity:0.1" cx="4" cy="11.5" r="1"/>
 <circle style="fill:#525252" cx="4" cy="11" r="1"/>
</svg>
